X:1
T:[ID 7-67]
T:[ID 7-67]
T:Bezeichnung standardisiert: Menuett Menuet No 1. Viol. / Zum Anfang \"Ahnlich in dieser Quelle: ID 2-6;
T:Urheber unbekannt Erstbeleg: 1776-1791 (Datum in der schriftlichen Quelle) Datum in der hier transkribierten schriftlichen Quelle: 1792
C:Urheber unbekannt
C:Erstbeleg: 1776-1791 (Datum in der schriftlichen Quelle)
C:Datum in der hier transkribierten schriftlichen Quelle: 1792
%%score 1 2
L:1/8
M:3/4
K:D
V:1 treble nm="Primo"
V:2 treble nm="Secondo"
V:1
 d4 cd | efec d2 | e4 ef | gage f2 | d4 cd | efec d2 | efgefd | e6 :: AB A2 a2 | a2 gf g2 | %10
 AB A2 g2 | g2 fe f2 | d4 cd | efec d2 | egfgac | d6 :| %16
V:2
 !fermata!F4 EF | GAGE F2 | c4 cd | efec d2 | F4 EF | GAGE F2 | cdecdB | c6 :: CD C2 f2 | %9
 f2 ed e2 | CD C2 e2 | e2 dc d2 | F4 EF |"^1)" x6 | cdABcE | F6 :| %16

